!!!COM: Scriabin, Alexander
!!!OTL@@FR: Prélude en si majeur
!!!OTL@@EN: Prelude in B Major
!!!OPR@@FR: 4 Préludes
!!!OPR@@EN: 4 Preludes
!!!OPS: 22
!!!ONM: 3
!!!ODT: 1897
!!!AGN: Prelude
**kern	**kern	**dynam
*staff2	*staff1	*staff1/2
*Ipiano	*Ipiano	*
*clefF4	*clefG2	*
*k[f#c#g#d#a#]	*k[f#c#g#d#a#]	*
*B:	*B:	*
*M3/4	*M3/4	*
=1	=1	=1
4r	4ff#	.
*clefG2	*	*
4c# 4e 4b	4.gg#	.
4c# 4e 4a#	.	.
.	8ff#	.
=2	=2	=2
*^	*	*
2cn 2e	4a#	20ff#LL	.
.	.	40gg#Jk	.
.	.	40r	.
.	.	20ff#L	.
.	.	20ee#X	.
.	.	20ff#JJ	.
.	2an	4aan	.
4B 4d#	.	8.gg#L	.
.	.	16ff#Jk	.
*clefF4	*	*	*
=3	=3	=3	=3
4E	4rc	8ff#L	.
.	.	8b	.
*clefG2	*	*	*
4.B 4.e	4an	8cc#	.
.	.	8dd#	.
.	8g#	8ee	.
*clefF4	*	*	*
8D#	8rc	8gg#J	.
*v	*v	*	*
=4	=4	=4
4C#	[4ddd#	.
*clefG2	*	*
4G# 4e 4b	8ddd#L]	.
.	8ccc#J	.
4r	12bbL	.
.	12gg#	.
.	12eeJ	.
*clefF4	*	*
=5	=5	=5
*^	*	*
4F##X	2e	8a#L 8dd#	.
.	.	8cc#J	.
4G#	.	12a#L	.
.	.	12b	.
.	.	12dd#J	.
4rEE	4rc	12ff#L	.
.	.	12ee	.
.	.	12bJ	.
=6	=6	=6	=6
4C##X	2B	8e#XL 8a#	.
.	.	8g#J	.
4D#	.	12e#L	.
.	.	12f#	.
.	.	12a#J	.
4Dn 4f#	8F#L	12cc#L	.
.	.	12b	.
.	8BJ	.	.
.	.	24r	.
.	.	24a#Jk	.
=7	=7	=7	=7
4C#	4rc	4.a#	.
2B	4f#	.	.
.	.	8g#	.
.	4e#X	8a#L	.
.	.	8bJ	.
=8	=8	=8	=8
2F# 2en	4Bn	8b#XL	.
.	.	8cc#	.
.	4A#	8gg#	.
.	.	8ff#	.
*clefG2	*	*	*
4rc	4cc#	8aa#	.
.	.	16r	.
.	.	16gg#Jk	.
=9	=9	=9	=9
4rc	2b	4.gg#	.
2c# 2e	.	.	.
.	.	8ff#	.
.	[4a#	8r	.
.	.	8ff#	.
=10	=10	=10	=10
2cn 2e	4a#]	20ff#LL	.
.	.	40gg#Jk	.
.	.	40r	.
.	.	20ff#L	.
.	.	20ee#X	.
.	.	20ff#JJ	.
.	2an	4aan	.
4B 4d#	.	8.gg#L	.
.	.	16ff#Jk	.
*clefF4	*	*	*
=11	=11	=11	=11
4E	4rc	8ff#L	.
.	.	8b	.
*clefG2	*	*	*
4.B 4.e	4an	8cc#	.
.	.	8dd#	.
.	8g#	8ee	.
*clefF4	*	*	*
8D#	8rc	8gg#J	.
*v	*v	*	*
=12	=12	=12
4C#	[4ddd#	.
*clefG2	*	*
4G# 4e 4b	8ddd#L]	.
.	8ccc#J	.
4r	12bbL	.
.	12gg#	.
.	12eeJ	.
*clefF4	*	*
=13	=13	=13
*^	*	*
4F##X	2e	8a#L 8dd#	.
.	.	8cc#J	.
4G#	.	12a#L	.
.	.	12b	.
.	.	12dd#J	.
4rEE	4rc	12ff#L	.
.	.	12ee	.
.	.	12bJ	.
=14	=14	=14	=14
4C##X	2B	8e#XL 8a#	.
.	.	8g#J	.
4D#	.	12e#L	.
.	.	12f#	.
.	.	12a#J	.
4rEE	4rc	12cc#L	.
.	.	12b	.
.	.	12f#J	.
*v	*v	*	*
=15	=15	=15
4E	12f##XL	.
.	12g#	.
.	12bJ	.
4B 4c# 4g#	8dd#L	.
.	[8cc#J	.
4E	8cc#L]	.
.	16r	.
.	16bbJk	.
=16	=16	=16
4E#X	2.bb	.
4B 4c# 4gn	.	.
4E# 4c# 4g 4b	.	.
=17	=17	=17
4F#	12e#XL	.
.	12f#	.
.	12bJ	.
4B 4c# 4f#	8dd#L	.
.	[8cc#J	.
4F#	8cc#L]	.
.	16r	.
.	16bbJk	.
=18	=18	=18
4Gn	2.bb	.
4B 4c# 4e#X	.	.
4G 4c# 4e# 4b	.	.
*clefG2	*	*
=19	=19	=19
4G#X	12r	.
.	12f#L	.
.	12bJ	.
4c# 4f# 4b	8dd#L	.
.	[8cc#J	.
4G#	8cc#L]	.
.	16r	.
.	16ddd#Jk	.
*clefF4	*	*
=20	=20	=20
4C#	[4ddd#	.
*clefG2	*	*
4G# 4f# 4b 4ff#	12ddd#L]	.
.	12ccc#	.
.	12bbJ	.
4r	12gg#L	.
.	12ff#	.
.	12dd#J	.
=21	=21	=21
*^	*	*
*	*^	*	*
2.B/	4rc	4raa	20cc#LL	.
.	.	.	40dd#Jk	.
.	.	.	40r	.
.	.	.	20cc#L	.
.	.	.	20b#X	.
.	.	.	20cc#JJ	.
.	4f#	2cc#	4aa#	.
.	4e#X	.	8.gg#L	.
.	.	.	16ff#Jk	.
*	*v	*v	*	*
=22	=22	=22	=22
2B	4raa	2.ff#	.
.	2en 2f# 2cc#	.	.
4A#	.	.	.
=23	=23	=23	=23
*	*^	*	*
2.An\	4rc	4raa	20bLL	.
.	.	.	40cc#Jk	.
.	.	.	40r	.
.	.	.	20bL	.
.	.	.	20a#X	.
.	.	.	20bJJ	.
.	4e	2b	4gg#	.
.	4d#	.	8.ff#L	.
.	.	.	16eeJk	.
*	*v	*v	*	*
*v	*v	*	*
*clefF4	*	*
=24	=24	=24
4G#	2.ee	.
4c# 4e 4b	.	.
4Gn	.	.
=25	=25	=25
*^	*	*
2F#	4rc	20f#LL	.
.	.	40g#Jk	.
.	.	40r	.
.	.	20f#L	.
.	.	20e#X	.
.	.	20f#JJ	.
.	2d#	8cc#L	.
.	.	[8bJ	.
4F#	.	8.bL]	.
.	.	16a#Jk	.
*v	*v	*	*
=26	=26	=26
4E#X	2a#	.
4B 4d# 4dd#	.	.
4r	[4g#	.
=27	=27	=27
*^	*	*
2rEE	2F# 2B 2en	12g#L]	.
.	.	12b	.
.	.	12cc#J	.
.	.	12eeL	.
.	.	12ff#	.
.	.	12gg#J	.
12BL	4F# 4e	12g#L 12b	.
12A#	.	12f# 12cc#	.
12FF#J	.	12eJ 12g#	.
*v	*v	*	*
=28	=28	=28
12BBBL	4d# 4b	.
12FF#	.	.
12F#J	.	.
4D# 4B 4f#	4b 4ff# 4bb	.
4r	4r	.
==	==	==
*-	*-	*-
!!!system-decoration: {(*)}
!!!ENC: Bryan Jacob Bell
!!!END: November 2021 to April 2022
!!!PED: Konstantin Igumnov and Yakov Milstein
!!!PTL: A.N. Skryabin: Polnoe sobranie sochinenii dlia fortepiano (Muzgiz)
